<?xml version="1.0" encoding="UTF-8"?>
<map version="1.10" tiledversion="1.11.2" orientation="orthogonal" renderorder="right-down" width="51" height="31" tilewidth="24" tileheight="24" infinite="0" nextlayerid="5" nextobjectid="18">
 <tileset firstgid="1" source="pacman-tileset.tsx"/>
 <layer id="2" name="Ghost Home" width="51" height="31">
  <data encoding="csv">
0,0,0,0,0,0,0,0,0,0,0,0,0,0,0,0,0,0,0,0,0,0,0,0,0,0,0,0,0,0,0,0,0,0,0,0,0,0,0,0,0,0,0,0,0,0,0,0,0,0,0,
0,0,0,0,0,0,0,0,0,0,0,0,0,0,0,0,0,0,0,0,0,0,0,0,0,0,0,0,0,0,0,0,0,0,0,0,0,0,0,0,0,0,0,0,0,0,0,0,0,0,0,
0,0,0,0,0,0,0,0,0,0,0,0,0,0,0,0,0,0,0,0,0,0,0,0,0,0,0,0,0,0,0,0,0,0,0,0,0,0,0,0,0,0,0,0,0,0,0,0,0,0,0,
0,0,0,0,0,0,0,0,0,0,0,0,0,0,0,0,0,0,0,0,0,0,0,0,0,0,0,0,0,0,0,0,0,0,0,0,0,0,0,0,0,0,0,0,0,0,0,0,0,0,0,
0,0,0,0,0,0,0,0,0,0,0,0,0,0,0,0,0,0,0,0,0,0,0,0,0,0,0,0,0,0,0,0,0,0,0,0,0,0,0,0,0,0,0,0,0,0,0,0,0,0,0,
0,0,0,0,0,0,0,0,0,0,0,0,0,0,0,0,0,0,0,0,0,0,0,0,0,0,0,0,0,0,0,0,0,0,0,0,0,0,0,0,0,0,0,0,0,0,0,0,0,0,0,
0,0,0,0,0,0,0,0,0,0,0,0,0,0,0,0,0,0,0,0,0,0,0,0,0,0,0,0,0,0,0,0,0,0,0,0,0,0,0,0,0,0,0,0,0,0,0,0,0,0,0,
0,0,0,0,0,0,0,0,0,0,0,0,0,0,0,0,0,0,0,0,0,0,0,0,0,0,0,0,0,0,0,0,0,0,0,0,0,0,0,0,0,0,0,0,0,0,0,0,0,0,0,
0,0,0,0,0,0,0,0,0,0,0,0,0,0,0,0,0,0,0,0,0,0,0,0,0,0,0,0,0,0,0,0,0,0,0,0,0,0,0,0,0,0,0,0,0,0,0,0,0,0,0,
0,0,0,0,0,0,0,0,0,0,0,0,0,0,0,0,0,0,0,0,0,0,0,0,0,0,0,0,0,0,0,0,0,0,0,0,0,0,0,0,0,0,0,0,0,0,0,0,0,0,0,
0,0,0,0,0,0,0,0,0,0,0,0,0,0,0,0,0,0,0,0,0,0,0,0,0,0,0,0,0,0,0,0,0,0,0,0,0,0,0,0,0,0,0,0,0,0,0,0,0,0,0,
0,0,0,0,0,0,0,0,0,0,0,0,0,0,0,0,0,0,0,0,0,0,0,0,0,0,0,0,0,0,0,0,0,0,0,0,0,0,0,0,0,0,0,0,0,0,0,0,0,0,0,
0,0,0,0,0,0,0,0,0,0,0,0,0,0,0,0,0,0,0,0,0,0,0,0,0,0,0,0,0,0,0,0,0,0,0,0,0,0,0,0,0,0,0,0,0,0,0,0,0,0,0,
0,0,0,0,0,0,0,0,0,0,0,0,0,0,0,0,0,0,0,0,0,0,0,0,5,5,5,0,0,0,0,0,0,0,0,0,0,0,0,0,0,0,0,0,0,0,0,0,0,0,0,
0,0,0,0,0,0,0,0,0,0,0,0,0,0,0,0,0,0,0,0,0,0,5,5,5,5,5,5,5,0,0,0,0,0,0,0,0,0,0,0,0,0,0,0,0,0,0,0,0,0,0,
0,0,0,0,0,0,0,0,0,0,0,0,0,0,0,0,0,0,0,0,0,0,5,5,5,5,5,5,5,0,0,0,0,0,0,0,0,0,0,0,0,0,0,0,0,0,0,0,0,0,0,
0,0,0,0,0,0,0,0,0,0,0,0,0,0,0,0,0,0,0,0,0,0,5,5,5,5,5,5,5,0,0,0,0,0,0,0,0,0,0,0,0,0,0,0,0,0,0,0,0,0,0,
0,0,0,0,0,0,0,0,0,0,0,0,0,0,0,0,0,0,0,0,0,0,0,0,0,0,0,0,0,0,0,0,0,0,0,0,0,0,0,0,0,0,0,0,0,0,0,0,0,0,0,
0,0,0,0,0,0,0,0,0,0,0,0,0,0,0,0,0,0,0,0,0,0,0,0,0,0,0,0,0,0,0,0,0,0,0,0,0,0,0,0,0,0,0,0,0,0,0,0,0,0,0,
0,0,0,0,0,0,0,0,0,0,0,0,0,0,0,0,0,0,0,0,0,0,0,0,0,0,0,0,0,0,0,0,0,0,0,0,0,0,0,0,0,0,0,0,0,0,0,0,0,0,0,
0,0,0,0,0,0,0,0,0,0,0,0,0,0,0,0,0,0,0,0,0,0,0,0,0,0,0,0,0,0,0,0,0,0,0,0,0,0,0,0,0,0,0,0,0,0,0,0,0,0,0,
0,0,0,0,0,0,0,0,0,0,0,0,0,0,0,0,0,0,0,0,0,0,0,0,0,0,0,0,0,0,0,0,0,0,0,0,0,0,0,0,0,0,0,0,0,0,0,0,0,0,0,
0,0,0,0,0,0,0,0,0,0,0,0,0,0,0,0,0,0,0,0,0,0,0,0,0,0,0,0,0,0,0,0,0,0,0,0,0,0,0,0,0,0,0,0,0,0,0,0,0,0,0,
0,0,0,0,0,0,0,0,0,0,0,0,0,0,0,0,0,0,0,0,0,0,0,0,0,0,0,0,0,0,0,0,0,0,0,0,0,0,0,0,0,0,0,0,0,0,0,0,0,0,0,
0,0,0,0,0,0,0,0,0,0,0,0,0,0,0,0,0,0,0,0,0,0,0,0,0,0,0,0,0,0,0,0,0,0,0,0,0,0,0,0,0,0,0,0,0,0,0,0,0,0,0,
0,0,0,0,0,0,0,0,0,0,0,0,0,0,0,0,0,0,0,0,0,0,0,0,0,0,0,0,0,0,0,0,0,0,0,0,0,0,0,0,0,0,0,0,0,0,0,0,0,0,0,
0,0,0,0,0,0,0,0,0,0,0,0,0,0,0,0,0,0,0,0,0,0,0,0,0,0,0,0,0,0,0,0,0,0,0,0,0,0,0,0,0,0,0,0,0,0,0,0,0,0,0,
0,0,0,0,0,0,0,0,0,0,0,0,0,0,0,0,0,0,0,0,0,0,0,0,0,0,0,0,0,0,0,0,0,0,0,0,0,0,0,0,0,0,0,0,0,0,0,0,0,0,0,
0,0,0,0,0,0,0,0,0,0,0,0,0,0,0,0,0,0,0,0,0,0,0,0,0,0,0,0,0,0,0,0,0,0,0,0,0,0,0,0,0,0,0,0,0,0,0,0,0,0,0,
0,0,0,0,0,0,0,0,0,0,0,0,0,0,0,0,0,0,0,0,0,0,0,0,0,0,0,0,0,0,0,0,0,0,0,0,0,0,0,0,0,0,0,0,0,0,0,0,0,0,0,
0,0,0,0,0,0,0,0,0,0,0,0,0,0,0,0,0,0,0,0,0,0,0,0,0,0,0,0,0,0,0,0,0,0,0,0,0,0,0,0,0,0,0,0,0,0,0,0,0,0,0
</data>
 </layer>
 <layer id="3" name="Food" width="51" height="31">
  <data encoding="csv">
0,0,0,0,0,0,0,0,0,0,0,0,0,0,0,0,0,0,0,0,0,0,0,0,0,0,0,0,0,0,0,0,0,0,0,0,0,0,0,0,0,0,0,0,0,0,0,0,0,0,0,
0,4,3,3,3,3,0,3,3,3,3,3,3,3,3,3,3,3,0,3,3,3,3,3,0,0,0,3,3,3,3,3,3,3,3,3,3,3,3,3,3,3,3,3,3,3,3,3,3,4,0,
0,3,0,0,0,3,0,3,0,0,0,3,0,3,0,0,0,3,0,3,0,0,0,3,0,0,0,3,0,0,0,0,0,0,0,0,3,0,0,0,3,0,0,0,0,0,0,0,0,3,0,
0,3,0,0,0,3,0,3,0,0,0,3,0,3,0,0,0,3,0,3,0,0,0,3,0,0,0,3,0,0,0,0,0,0,0,0,3,0,0,0,3,0,0,0,0,0,0,0,0,3,0,
0,3,0,0,0,3,0,3,0,0,0,3,0,3,0,0,0,3,0,3,0,0,0,3,0,0,0,3,0,0,0,0,0,0,0,0,3,0,0,0,3,0,0,0,0,0,0,0,0,3,0,
0,3,3,3,3,3,3,3,3,3,3,3,0,3,3,3,3,3,3,3,3,3,3,3,0,0,0,3,0,0,0,0,0,0,0,0,3,0,0,0,3,0,0,0,0,0,0,0,0,3,0,
0,3,0,0,0,0,0,0,3,0,0,0,0,0,0,0,3,0,0,0,0,0,0,3,0,0,0,3,3,3,3,3,3,3,3,3,3,3,3,3,3,3,3,3,3,3,3,3,3,3,0,
0,3,3,3,3,3,3,3,3,3,3,3,3,3,3,3,3,3,3,3,3,3,3,3,3,4,3,3,0,0,0,0,3,0,0,0,0,0,0,0,0,0,0,0,3,0,0,0,0,3,0,
0,3,0,0,0,0,0,0,3,0,0,0,3,0,0,0,3,0,0,0,0,0,0,3,0,0,0,3,0,0,0,0,3,0,0,0,0,0,0,0,0,0,0,0,3,0,0,0,0,3,0,
0,3,0,0,0,0,0,0,3,3,3,0,3,0,4,3,3,0,0,0,0,0,0,3,0,0,0,3,0,0,0,0,3,0,0,0,0,0,0,0,0,0,0,0,3,0,0,0,0,3,0,
0,3,0,0,0,0,0,0,3,0,0,0,3,0,0,0,3,0,0,0,0,0,0,3,3,3,3,3,3,3,3,3,3,3,3,3,3,3,0,3,3,3,3,3,3,3,3,3,3,3,0,
0,3,3,3,3,3,3,3,3,3,3,3,3,3,3,3,3,3,3,3,3,0,0,3,0,0,0,3,0,0,0,0,3,0,0,0,0,3,0,3,0,0,0,0,3,0,0,0,0,3,0,
0,0,0,0,0,3,0,0,0,0,0,3,0,0,0,0,0,3,0,0,3,3,3,3,3,3,3,3,3,3,3,3,3,3,3,3,3,3,3,3,3,3,3,3,3,3,0,0,0,0,0,
0,0,0,0,0,3,0,3,3,3,3,3,3,3,3,3,0,3,0,0,3,0,0,0,0,0,0,0,0,0,3,0,0,0,0,0,0,3,0,0,0,0,0,0,0,3,0,0,0,0,0,
0,0,0,0,0,3,0,3,0,0,0,3,0,0,0,3,0,3,0,0,3,0,0,0,0,0,0,0,0,0,3,0,3,3,3,3,3,3,0,3,3,3,3,3,0,3,0,0,0,0,0,
3,3,3,3,3,3,0,3,0,0,0,3,0,0,0,3,0,3,0,0,3,0,0,0,0,0,0,0,0,0,3,0,3,0,0,0,0,3,0,3,0,0,0,3,0,3,3,3,3,3,3,
0,0,0,0,0,3,0,3,0,0,0,3,0,0,0,3,0,3,0,0,3,0,0,0,0,0,0,0,0,0,3,0,3,0,0,4,0,3,0,3,0,0,0,3,0,3,0,0,0,0,0,
0,0,0,0,0,3,0,4,0,0,0,3,0,0,0,3,0,3,0,0,3,0,0,0,0,0,0,0,0,0,3,0,3,3,3,3,0,3,0,3,0,0,0,3,0,3,0,0,0,0,0,
0,0,0,0,0,3,0,0,0,0,0,3,0,0,0,3,0,3,3,3,3,3,3,3,3,3,3,3,3,3,3,0,0,0,0,0,0,3,0,3,3,3,3,3,0,3,0,0,0,0,0,
0,3,3,3,3,3,3,3,3,3,3,3,3,3,3,3,3,3,0,0,3,0,0,0,0,0,0,0,0,0,3,3,3,3,3,3,3,3,3,3,0,0,0,3,3,3,3,3,3,3,0,
0,3,0,0,0,3,0,0,0,0,0,3,0,0,0,3,0,0,0,0,3,3,3,3,3,3,3,3,3,3,3,0,0,0,0,0,0,3,0,0,0,0,0,0,0,3,0,0,0,3,0,
0,3,0,0,0,3,3,3,3,3,3,3,3,3,3,3,3,3,0,0,3,0,0,0,0,0,0,0,0,0,3,3,3,3,0,3,3,3,3,3,3,4,3,3,3,3,3,3,0,3,0,
0,3,0,0,0,3,0,3,0,0,0,0,0,0,0,3,0,3,0,0,3,0,0,0,0,0,0,0,0,0,3,0,0,3,0,3,0,3,0,0,3,0,3,0,0,3,0,3,0,3,0,
0,3,0,0,0,3,0,3,3,3,3,0,3,3,3,3,0,3,0,0,3,0,0,0,0,0,0,0,0,0,3,0,0,3,0,3,0,3,0,0,3,0,3,0,0,3,0,3,0,3,0,
0,3,0,0,0,3,0,0,0,0,3,0,3,0,0,0,0,3,0,0,3,3,3,3,3,4,3,3,3,3,3,3,3,3,0,3,0,3,0,0,3,0,3,0,0,3,0,3,0,3,0,
0,3,0,0,0,3,0,3,3,3,3,0,3,3,3,3,0,3,0,0,3,0,0,3,0,0,0,3,0,0,0,0,0,3,0,3,0,3,3,3,3,0,3,3,3,3,0,3,0,3,0,
0,3,0,0,0,3,0,3,0,0,3,0,3,0,0,3,0,3,0,0,3,0,0,3,0,0,0,3,0,0,0,0,0,3,3,3,3,3,0,0,0,0,0,0,0,3,3,3,3,3,0,
0,3,0,0,0,3,0,3,0,0,3,0,3,0,0,3,0,3,0,0,3,0,0,3,0,0,0,3,0,0,0,0,0,3,0,0,0,3,3,3,3,3,3,3,3,3,0,0,0,3,0,
0,3,0,0,0,3,0,3,0,0,3,0,3,0,0,3,0,3,0,0,3,0,0,3,0,0,0,3,0,0,0,0,0,3,0,0,0,3,0,0,0,0,0,0,0,3,0,0,0,3,0,
0,3,3,3,3,3,3,3,3,3,3,4,3,3,3,3,3,3,3,3,3,3,3,3,0,0,0,3,3,3,3,3,3,3,3,3,3,3,0,0,0,0,0,0,0,3,3,3,3,4,0,
0,0,0,0,0,0,0,0,0,0,0,0,0,0,0,0,0,0,0,0,0,0,0,0,0,0,0,0,0,0,0,0,0,0,0,0,0,0,0,0,0,0,0,0,0,0,0,0,0,0,0
</data>
 </layer>
 <layer id="1" name="Wall" width="51" height="31">
  <data encoding="csv">
2,2,2,2,2,2,2,2,2,2,2,2,2,2,2,2,2,2,2,2,2,2,2,2,2,2,2,2,2,2,2,2,2,2,2,2,2,2,2,2,2,2,2,2,2,2,2,2,2,2,2,
2,0,0,0,0,0,2,0,0,0,0,0,0,0,0,0,0,0,2,0,0,0,0,0,2,5,2,0,0,0,0,0,0,0,0,0,0,0,0,0,0,0,0,0,0,0,0,0,0,0,2,
2,0,2,2,2,0,2,0,2,2,2,0,2,0,2,2,2,0,2,0,2,2,2,0,2,5,2,0,2,2,2,2,2,2,2,2,0,2,2,2,0,2,2,2,2,2,2,2,2,0,2,
2,0,2,2,2,0,2,0,2,2,2,0,2,0,2,2,2,0,2,0,2,2,2,0,2,5,2,0,2,5,5,5,5,5,5,2,0,2,5,2,0,2,5,5,5,5,5,5,2,0,2,
2,0,2,2,2,0,2,0,2,2,2,0,2,0,2,2,2,0,2,0,2,2,2,0,2,5,2,0,2,5,5,5,5,5,5,2,0,2,5,2,0,2,5,5,5,5,5,5,2,0,2,
2,0,0,0,0,0,0,0,0,0,0,0,2,0,0,0,0,0,0,0,0,0,0,0,2,5,2,0,2,2,2,2,2,2,2,2,0,2,2,2,0,2,2,2,2,2,2,2,2,0,2,
2,0,2,2,2,2,2,2,0,2,2,2,2,2,2,2,0,2,2,2,2,2,2,0,2,2,2,0,0,0,0,0,0,0,0,0,0,0,0,0,0,0,0,0,0,0,0,0,0,0,2,
2,0,0,0,0,0,0,0,0,0,0,0,0,0,0,0,0,0,0,0,0,0,0,0,0,0,0,0,2,2,2,2,0,2,2,2,2,2,2,2,2,2,2,2,0,2,2,2,2,0,2,
2,0,2,2,2,2,2,2,0,2,2,2,0,2,2,2,0,2,2,2,2,2,2,0,2,2,2,0,2,5,5,2,0,2,5,5,5,5,5,5,5,5,5,2,0,2,5,5,2,0,2,
2,0,2,5,5,5,5,2,0,0,0,2,0,2,0,0,0,2,5,5,5,5,2,0,2,2,2,0,2,2,2,2,0,2,2,2,2,2,2,2,2,2,2,2,0,2,2,2,2,0,2,
2,0,2,2,2,2,2,2,0,2,2,2,0,2,2,2,0,2,2,2,2,2,2,0,0,0,0,0,0,0,0,0,0,0,0,0,0,0,2,0,0,0,0,0,0,0,0,0,0,0,2,
2,0,0,0,0,0,0,0,0,0,0,0,0,0,0,0,0,0,0,0,0,2,2,0,2,2,2,0,2,2,2,2,0,2,2,2,2,0,2,0,2,2,2,2,0,2,2,2,2,0,2,
2,2,2,2,2,0,1,1,1,1,1,0,1,1,1,1,1,0,2,2,0,0,0,0,0,0,0,0,0,0,0,0,0,0,0,0,0,0,0,0,0,0,0,0,0,0,2,2,2,2,2,
2,5,5,5,2,0,1,0,0,0,0,0,0,0,0,0,1,0,2,2,0,2,2,2,0,0,0,2,2,2,0,1,1,1,1,1,1,0,1,1,1,1,1,1,1,0,2,5,5,5,2,
2,2,2,2,2,0,1,0,1,1,1,0,2,2,2,0,1,0,2,2,0,2,0,0,0,0,0,0,0,2,0,1,0,0,0,0,0,0,1,0,0,0,0,0,1,0,2,2,2,2,2,
0,0,0,0,0,0,1,0,1,5,1,0,2,5,2,0,1,0,2,2,0,2,0,0,0,0,0,0,0,2,0,1,0,1,1,1,1,0,1,0,1,1,1,0,1,0,0,0,0,0,0,
2,2,2,2,2,0,1,0,1,5,1,0,2,5,2,0,1,0,2,2,0,2,0,0,0,0,0,0,0,2,0,1,0,1,1,0,1,0,1,0,1,1,1,0,1,0,2,2,2,2,2,
2,5,5,5,2,0,1,0,1,5,1,0,2,5,2,0,1,0,2,2,0,2,2,2,2,2,2,2,2,2,0,1,0,0,0,0,1,0,1,0,1,1,1,0,1,0,2,5,5,5,2,
2,2,2,2,2,0,1,1,1,1,1,0,2,2,2,0,1,0,0,0,0,0,0,0,0,0,0,0,0,0,0,1,1,1,1,1,1,0,1,0,0,0,0,0,1,0,2,2,2,2,2,
2,0,0,0,0,0,0,0,0,0,0,0,0,0,0,0,0,0,2,2,0,2,2,2,2,2,2,2,2,2,0,0,0,0,0,0,0,0,0,0,2,2,2,0,0,0,0,0,0,0,2,
2,0,2,2,2,0,2,2,2,2,2,0,2,2,2,0,2,2,2,2,0,0,0,0,0,0,0,0,0,0,0,2,2,2,2,2,2,0,2,2,2,2,2,2,2,0,2,2,2,0,2,
2,0,2,5,2,0,0,0,0,0,0,0,0,0,0,0,0,0,2,2,0,2,2,2,2,2,2,2,2,2,0,0,0,0,2,0,0,0,0,0,0,0,0,0,0,0,0,0,2,0,2,
2,0,2,5,2,0,2,0,2,2,2,2,2,2,2,0,2,0,2,2,0,2,5,5,5,5,5,5,5,2,0,2,2,0,2,0,2,0,2,2,0,2,0,2,2,0,2,0,2,0,2,
2,0,2,5,2,0,2,0,0,0,0,2,0,0,0,0,2,0,2,2,0,2,2,2,2,2,2,2,2,2,0,2,2,0,2,0,2,0,2,2,0,2,0,2,2,0,2,0,2,0,2,
2,0,2,5,2,0,2,2,2,2,0,2,0,2,2,2,2,0,2,2,0,0,0,0,0,0,0,0,0,0,0,0,0,0,2,0,2,0,2,2,0,2,0,2,2,0,2,0,2,0,2,
2,0,2,5,2,0,2,0,0,0,0,2,0,0,0,0,2,0,2,2,0,2,2,0,2,2,2,0,2,2,2,2,2,0,2,0,2,0,0,0,0,2,0,0,0,0,2,0,2,0,2,
2,0,2,5,2,0,2,0,2,2,0,2,0,2,2,0,2,0,2,2,0,2,2,0,2,5,2,0,2,5,5,5,2,0,0,0,0,0,2,2,2,2,2,2,2,0,0,0,0,0,2,
2,0,2,5,2,0,2,0,2,2,0,2,0,2,2,0,2,0,2,2,0,2,2,0,2,5,2,0,2,5,5,5,2,0,2,2,2,0,0,0,0,0,0,0,0,0,2,2,2,0,2,
2,0,2,2,2,0,2,0,2,2,0,2,0,2,2,0,2,0,2,2,0,2,2,0,2,5,2,0,2,2,2,2,2,0,2,2,2,0,2,2,2,2,2,2,2,0,2,2,2,0,2,
2,0,0,0,0,0,0,0,0,0,0,0,0,0,0,0,0,0,0,0,0,0,0,0,2,5,2,0,0,0,0,0,0,0,0,0,0,0,2,5,5,5,5,5,2,0,0,0,0,0,2,
2,2,2,2,2,2,2,2,2,2,2,2,2,2,2,2,2,2,2,2,2,2,2,2,2,2,2,2,2,2,2,2,2,2,2,2,2,2,2,2,2,2,2,2,2,2,2,2,2,2,2
</data>
 </layer>
 <objectgroup id="4" name="Waypoints" visible="0">
  <object id="5" name="Home" x="13.4977" y="373.029">
   <point/>
  </object>
  <object id="6" name="Goal" x="1212.34" y="370.574">
   <point/>
  </object>
  <object id="8" x="34.3579" y="29.4496">
   <point/>
  </object>
  <object id="9" x="1186.57" y="30.6767">
   <point/>
  </object>
  <object id="10" x="611.08" y="174.244">
   <point/>
  </object>
  <object id="11" x="347.26" y="225.78">
   <point/>
  </object>
  <object id="12" x="179.152" y="417.203">
   <point/>
  </object>
  <object id="13" x="274.863" y="705.564">
   <point/>
  </object>
  <object id="14" x="611.08" y="585.311">
   <point/>
  </object>
  <object id="15" x="849.131" y="393.889">
   <point/>
  </object>
  <object id="16" x="995.152" y="516.595">
   <point/>
  </object>
  <object id="17" x="1187.8" y="708.018">
   <point/>
  </object>
 </objectgroup>
</map>
