<?xml version="1.0" encoding="UTF-8"?>
<map version="1.10" tiledversion="1.11.2" orientation="orthogonal" renderorder="right-down" width="51" height="31" tilewidth="24" tileheight="24" infinite="0" nextlayerid="5" nextobjectid="13">
 <tileset firstgid="1" source="pacman-tileset.tsx"/>
 <layer id="1" name="Ghost Home" width="51" height="31">
  <data encoding="csv">
0,0,0,0,0,0,0,0,0,0,0,0,0,0,0,0,0,0,0,0,0,0,0,0,0,0,0,0,0,0,0,0,0,0,0,0,0,0,0,0,0,0,0,0,0,0,0,0,0,0,0,
0,0,0,0,0,0,0,0,0,0,0,0,0,0,0,0,0,0,0,0,0,0,0,0,0,0,0,0,0,0,0,0,0,0,0,0,0,0,0,0,0,0,0,0,0,0,0,0,0,0,0,
0,0,0,0,0,0,0,0,0,0,0,0,0,0,0,0,0,0,0,0,0,0,0,0,0,0,0,0,0,0,0,0,0,0,0,0,0,0,0,0,0,0,0,0,0,0,0,0,0,0,0,
0,0,0,0,0,0,0,0,0,0,0,0,0,0,0,0,0,0,0,0,0,0,0,0,0,0,0,0,0,0,0,0,0,0,0,0,0,0,0,0,0,0,0,0,0,0,0,0,0,0,0,
0,0,0,0,0,0,0,0,0,0,0,0,0,0,0,0,0,0,0,0,0,0,0,0,0,0,0,0,0,0,0,0,0,0,0,0,0,0,0,0,0,0,0,0,0,0,0,0,0,0,0,
0,0,0,0,0,0,0,0,0,0,0,0,0,0,0,0,0,0,0,0,0,0,0,0,0,0,0,0,0,0,0,0,0,0,0,0,0,0,0,0,0,0,0,0,0,0,0,0,0,0,0,
0,0,0,0,0,0,0,0,0,0,0,0,0,0,0,0,0,0,0,0,0,0,0,0,0,0,0,0,0,0,0,0,0,0,0,0,0,0,0,0,0,0,0,0,0,0,0,0,0,0,0,
0,0,0,0,0,0,0,0,0,0,0,0,0,0,0,0,0,0,0,0,0,0,0,0,0,0,0,0,0,0,0,0,0,0,0,0,0,0,0,0,0,0,0,0,0,0,0,0,0,0,0,
0,0,0,0,0,0,0,0,0,0,0,0,0,0,0,0,0,0,0,0,0,0,0,0,0,0,0,0,0,0,0,0,0,0,0,0,0,0,0,0,0,0,0,0,0,0,0,0,0,0,0,
0,0,0,0,0,0,0,0,0,0,0,0,0,0,0,0,0,0,0,0,0,0,0,0,0,0,0,0,0,0,0,0,0,0,0,0,0,0,0,0,0,0,0,0,0,0,0,0,0,0,0,
0,0,0,0,0,0,0,0,0,0,0,0,0,0,0,0,0,0,0,0,0,0,0,0,0,0,0,0,0,0,0,0,0,0,0,0,0,0,0,0,0,0,0,0,0,0,0,0,0,0,0,
0,0,0,0,0,0,0,0,0,0,0,0,0,0,0,0,0,0,0,0,0,0,0,0,0,0,0,0,0,0,0,0,0,0,0,0,0,0,0,0,0,0,0,0,0,0,0,0,0,0,0,
0,0,0,0,0,0,0,0,0,0,0,0,0,0,0,0,0,0,0,0,0,0,0,0,0,0,0,0,0,0,0,0,0,0,0,0,0,0,0,0,0,0,0,0,0,0,0,0,0,0,0,
0,0,0,0,0,0,0,0,0,0,0,0,0,0,0,0,0,0,0,0,0,0,0,0,5,5,5,0,0,0,0,0,0,0,0,0,0,0,0,0,0,0,0,0,0,0,0,0,0,0,0,
0,0,0,0,0,0,0,0,0,0,0,0,0,0,0,0,0,0,0,0,0,0,5,5,5,5,5,5,5,0,0,0,0,0,0,0,0,0,0,0,0,0,0,0,0,0,0,0,0,0,0,
0,0,0,0,0,0,0,0,0,0,0,0,0,0,0,0,0,0,0,0,0,0,5,5,5,5,5,5,5,0,0,0,0,0,0,0,0,0,0,0,0,0,0,0,0,0,0,0,0,0,0,
0,0,0,0,0,0,0,0,0,0,0,0,0,0,0,0,0,0,0,0,0,0,5,5,5,5,5,5,5,0,0,0,0,0,0,0,0,0,0,0,0,0,0,0,0,0,0,0,0,0,0,
0,0,0,0,0,0,0,0,0,0,0,0,0,0,0,0,0,0,0,0,0,0,0,0,0,0,0,0,0,0,0,0,0,0,0,0,0,0,0,0,0,0,0,0,0,0,0,0,0,0,0,
0,0,0,0,0,0,0,0,0,0,0,0,0,0,0,0,0,0,0,0,0,0,0,0,0,0,0,0,0,0,0,0,0,0,0,0,0,0,0,0,0,0,0,0,0,0,0,0,0,0,0,
0,0,0,0,0,0,0,0,0,0,0,0,0,0,0,0,0,0,0,0,0,0,0,0,0,0,0,0,0,0,0,0,0,0,0,0,0,0,0,0,0,0,0,0,0,0,0,0,0,0,0,
0,0,0,0,0,0,0,0,0,0,0,0,0,0,0,0,0,0,0,0,0,0,0,0,0,0,0,0,0,0,0,0,0,0,0,0,0,0,0,0,0,0,0,0,0,0,0,0,0,0,0,
0,0,0,0,0,0,0,0,0,0,0,0,0,0,0,0,0,0,0,0,0,0,0,0,0,0,0,0,0,0,0,0,0,0,0,0,0,0,0,0,0,0,0,0,0,0,0,0,0,0,0,
0,0,0,0,0,0,0,0,0,0,0,0,0,0,0,0,0,0,0,0,0,0,0,0,0,0,0,0,0,0,0,0,0,0,0,0,0,0,0,0,0,0,0,0,0,0,0,0,0,0,0,
0,0,0,0,0,0,0,0,0,0,0,0,0,0,0,0,0,0,0,0,0,0,0,0,0,0,0,0,0,0,0,0,0,0,0,0,0,0,0,0,0,0,0,0,0,0,0,0,0,0,0,
0,0,0,0,0,0,0,0,0,0,0,0,0,0,0,0,0,0,0,0,0,0,0,0,0,0,0,0,0,0,0,0,0,0,0,0,0,0,0,0,0,0,0,0,0,0,0,0,0,0,0,
0,0,0,0,0,0,0,0,0,0,0,0,0,0,0,0,0,0,0,0,0,0,0,0,0,0,0,0,0,0,0,0,0,0,0,0,0,0,0,0,0,0,0,0,0,0,0,0,0,0,0,
0,0,0,0,0,0,0,0,0,0,0,0,0,0,0,0,0,0,0,0,0,0,0,0,0,0,0,0,0,0,0,0,0,0,0,0,0,0,0,0,0,0,0,0,0,0,0,0,0,0,0,
0,0,0,0,0,0,0,0,0,0,0,0,0,0,0,0,0,0,0,0,0,0,0,0,0,0,0,0,0,0,0,0,0,0,0,0,0,0,0,0,0,0,0,0,0,0,0,0,0,0,0,
0,0,0,0,0,0,0,0,0,0,0,0,0,0,0,0,0,0,0,0,0,0,0,0,0,0,0,0,0,0,0,0,0,0,0,0,0,0,0,0,0,0,0,0,0,0,0,0,0,0,0,
0,0,0,0,0,0,0,0,0,0,0,0,0,0,0,0,0,0,0,0,0,0,0,0,0,0,0,0,0,0,0,0,0,0,0,0,0,0,0,0,0,0,0,0,0,0,0,0,0,0,0,
0,0,0,0,0,0,0,0,0,0,0,0,0,0,0,0,0,0,0,0,0,0,0,0,0,0,0,0,0,0,0,0,0,0,0,0,0,0,0,0,0,0,0,0,0,0,0,0,0,0,0
</data>
 </layer>
 <layer id="2" name="Food" width="51" height="31">
  <data encoding="csv">
0,0,0,0,0,0,0,0,0,0,0,0,0,0,0,0,0,0,0,0,0,0,0,0,0,0,0,0,0,0,0,0,0,0,0,0,0,0,0,0,0,0,0,0,0,0,0,0,0,0,0,
0,4,3,3,3,3,0,3,3,3,3,3,3,3,3,3,3,3,0,3,3,3,3,3,0,0,0,3,3,3,3,3,3,3,3,3,3,3,3,3,3,3,3,3,3,3,3,3,3,3,0,
0,3,0,0,0,3,0,3,0,0,0,3,0,3,0,0,0,3,0,3,0,0,0,3,0,0,0,3,0,0,0,0,0,0,0,0,3,0,0,0,3,0,0,0,0,0,0,0,0,3,0,
0,3,0,0,0,3,0,3,0,0,0,3,0,3,0,0,0,3,0,3,0,0,0,3,0,0,0,3,0,0,0,0,0,0,0,0,3,0,0,0,3,0,0,0,0,0,0,0,0,3,0,
0,3,0,0,0,3,0,3,0,0,0,3,0,3,0,0,0,3,0,3,0,0,0,3,0,0,0,3,0,0,0,0,0,0,0,0,3,0,0,0,3,0,0,0,0,0,0,0,0,3,0,
0,3,3,3,3,3,3,3,3,3,3,3,0,3,3,3,3,3,3,3,3,3,3,3,0,0,0,3,0,0,0,0,0,0,0,0,3,0,0,0,3,0,0,0,0,0,0,0,0,3,0,
0,3,0,0,0,0,0,0,3,0,0,0,0,0,0,0,3,0,0,0,0,0,0,3,0,0,0,3,3,3,3,3,3,3,3,3,3,3,3,3,3,3,3,3,3,3,3,3,3,3,0,
0,3,3,3,3,3,3,3,3,3,3,3,3,3,3,3,3,3,3,3,3,3,3,3,3,4,3,3,0,0,0,0,3,0,0,0,0,0,0,0,0,0,0,0,3,0,0,0,0,3,0,
0,3,0,0,0,0,0,0,3,0,0,0,3,0,0,0,3,0,0,0,0,0,0,3,0,0,0,3,0,0,0,0,3,0,0,0,0,0,0,0,0,0,0,0,3,0,0,0,0,3,0,
0,3,0,0,0,0,0,0,3,3,4,0,3,0,3,3,3,0,0,0,0,0,0,3,0,0,0,3,0,0,0,0,3,0,0,0,0,0,0,0,0,0,0,0,3,0,0,0,0,3,0,
0,3,0,0,0,0,0,0,3,0,0,0,3,0,0,0,3,0,0,0,0,0,0,3,3,3,3,3,3,3,3,3,3,3,3,3,3,3,0,3,3,3,3,3,3,3,3,3,3,3,0,
0,3,3,3,3,3,3,3,3,3,3,3,3,3,3,3,3,3,3,3,3,0,0,3,0,0,0,3,0,0,0,0,3,0,0,0,0,3,0,3,0,0,0,0,3,0,0,0,0,4,0,
0,0,0,0,0,3,0,0,0,0,0,3,0,0,0,0,0,3,0,0,3,3,3,3,3,3,3,3,3,3,3,3,3,3,3,3,3,3,3,3,3,3,3,3,3,3,0,0,0,0,0,
0,0,0,0,0,3,0,3,3,3,3,3,3,3,3,3,0,3,0,0,3,0,0,0,0,0,0,0,0,0,3,0,0,0,0,0,0,3,0,0,0,0,0,0,0,3,0,0,0,0,0,
0,0,0,0,0,3,0,3,0,0,0,3,0,0,0,3,0,3,0,0,3,0,0,0,0,0,0,0,0,0,3,0,3,3,3,3,3,3,0,3,3,3,3,3,0,3,0,0,0,0,0,
3,3,3,3,3,3,0,3,0,0,0,3,0,0,0,3,0,3,0,0,3,0,0,0,0,0,0,0,0,0,3,0,3,0,0,0,0,3,0,3,0,0,0,3,0,3,3,3,3,3,3,
0,0,0,0,0,3,0,3,0,0,0,3,0,0,0,3,0,3,0,0,3,0,0,0,0,0,0,0,0,0,3,0,3,0,0,4,0,3,0,3,0,0,0,3,0,3,0,0,0,0,0,
0,0,0,0,0,3,0,4,0,0,0,3,0,0,0,3,0,3,0,0,3,0,0,0,0,0,0,0,0,0,3,0,3,3,3,3,0,3,0,3,0,0,0,3,0,3,0,0,0,0,0,
0,0,0,0,0,3,0,0,0,0,0,3,0,0,0,3,0,3,3,3,3,3,3,3,3,4,3,3,3,3,3,0,0,0,0,0,0,3,0,3,3,3,3,3,0,3,0,0,0,0,0,
0,3,3,3,3,3,3,3,3,3,3,3,3,3,3,3,3,3,0,0,3,0,0,0,0,0,0,0,0,0,3,3,3,3,3,3,3,3,3,3,0,0,0,3,3,3,3,3,3,3,0,
0,3,0,0,0,3,0,0,0,0,0,3,0,0,0,3,0,0,0,0,3,3,3,3,3,3,3,3,3,3,3,0,0,0,0,0,0,3,0,0,0,0,0,0,0,3,0,0,0,3,0,
0,3,0,0,0,3,3,3,3,3,3,3,3,3,3,3,3,3,0,0,3,0,0,0,0,0,0,0,0,0,3,3,3,3,0,3,3,3,3,3,3,4,3,3,3,3,3,3,0,3,0,
0,3,0,0,0,3,0,3,0,0,0,0,0,0,0,3,0,3,0,0,3,0,0,0,0,0,0,0,0,0,3,0,0,3,0,3,0,3,0,0,3,0,3,0,0,3,0,3,0,3,0,
0,3,0,0,0,3,0,3,3,3,3,0,3,3,3,3,0,3,0,0,3,0,0,0,0,0,0,0,0,0,3,0,0,3,0,3,0,3,0,0,3,0,3,0,0,3,0,3,0,3,0,
0,3,0,0,0,3,0,0,0,0,3,0,3,0,0,0,0,3,0,0,3,3,3,3,3,3,3,3,3,3,3,3,3,3,0,3,0,3,0,0,3,0,3,0,0,3,0,3,0,3,0,
0,3,0,0,0,3,0,3,3,3,3,0,3,3,3,3,0,3,0,0,3,0,0,3,0,0,0,3,0,0,0,0,0,3,0,3,0,3,3,3,3,0,3,3,3,3,0,3,0,3,0,
0,3,0,0,0,3,0,3,0,0,3,0,3,0,0,3,0,3,0,0,3,0,0,3,0,0,0,3,0,0,0,0,0,3,3,3,3,3,0,0,0,0,0,0,0,3,3,3,3,3,0,
0,3,0,0,0,3,0,3,0,0,3,4,3,0,0,3,0,3,0,0,3,0,0,3,0,0,0,3,0,0,0,0,0,3,0,0,0,3,3,3,3,3,3,3,3,3,0,0,0,3,0,
0,3,0,0,0,3,0,3,0,0,3,0,3,0,0,3,0,3,0,0,3,0,0,3,0,0,0,3,0,0,0,0,0,3,0,0,0,3,0,0,0,0,0,0,0,3,0,0,0,3,0,
0,3,3,3,3,3,3,3,3,3,3,3,3,3,3,3,3,3,3,3,3,3,3,3,0,0,0,3,3,3,3,3,3,3,3,3,3,3,0,0,0,0,0,0,0,3,3,3,3,4,0,
0,0,0,0,0,0,0,0,0,0,0,0,0,0,0,0,0,0,0,0,0,0,0,0,0,0,0,0,0,0,0,0,0,0,0,0,0,0,0,0,0,0,0,0,0,0,0,0,0,0,0
</data>
 </layer>
 <layer id="3" name="Wall" width="51" height="31">
  <data encoding="csv">
2,2,2,2,2,2,2,2,2,2,2,2,2,2,2,2,2,2,2,2,2,2,2,2,2,2,2,2,2,2,2,2,2,2,2,2,2,2,2,2,2,2,2,2,2,2,2,2,2,2,2,
2,0,0,0,0,0,2,0,0,0,0,0,0,0,0,0,0,0,2,0,0,0,0,0,2,5,2,0,0,0,0,0,0,0,0,0,0,0,0,0,0,0,0,0,0,0,0,0,0,0,2,
2,0,2,2,2,0,2,0,2,2,2,0,2,0,2,2,2,0,2,0,2,2,2,0,2,5,2,0,2,2,2,2,2,2,2,2,0,2,2,2,0,2,2,2,2,2,2,2,2,0,2,
2,0,2,2,2,0,2,0,2,2,2,0,2,0,2,2,2,0,2,0,2,2,2,0,2,5,2,0,2,5,5,5,5,5,5,2,0,2,5,2,0,2,5,5,5,5,5,5,2,0,2,
2,0,2,2,2,0,2,0,2,2,2,0,2,0,2,2,2,0,2,0,2,2,2,0,2,5,2,0,2,5,5,5,5,5,5,2,0,2,5,2,0,2,5,5,5,5,5,5,2,0,2,
2,0,0,0,0,0,0,0,0,0,0,0,2,0,0,0,0,0,0,0,0,0,0,0,2,5,2,0,2,2,2,2,2,2,2,2,0,2,2,2,0,2,2,2,2,2,2,2,2,0,2,
2,0,2,2,2,2,2,2,0,2,2,2,2,2,2,2,0,2,2,2,2,2,2,0,2,2,2,0,0,0,0,0,0,0,0,0,0,0,0,0,0,0,0,0,0,0,0,0,0,0,2,
2,0,0,0,0,0,0,0,0,0,0,0,0,0,0,0,0,0,0,0,0,0,0,0,0,0,0,0,2,2,2,2,0,2,2,2,2,2,2,2,2,2,2,2,0,2,2,2,2,0,2,
2,0,2,2,2,2,2,2,0,2,2,2,0,2,2,2,0,2,2,2,2,2,2,0,2,2,2,0,2,5,5,2,0,2,5,5,5,5,5,5,5,5,5,2,0,2,5,5,2,0,2,
2,0,2,5,5,5,5,2,0,0,0,2,0,2,0,0,0,2,5,5,5,5,2,0,2,2,2,0,2,2,2,2,0,2,2,2,2,2,2,2,2,2,2,2,0,2,2,2,2,0,2,
2,0,2,2,2,2,2,2,0,2,2,2,0,2,2,2,0,2,2,2,2,2,2,0,0,0,0,0,0,0,0,0,0,0,0,0,0,0,2,0,0,0,0,0,0,0,0,0,0,0,2,
2,0,0,0,0,0,0,0,0,0,0,0,0,0,0,0,0,0,0,0,0,2,2,0,2,2,2,0,2,2,2,2,0,2,2,2,2,0,2,0,2,2,2,2,0,2,2,2,2,0,2,
2,2,2,2,2,0,1,1,1,1,1,0,1,1,1,1,1,0,2,2,0,0,0,0,0,0,0,0,0,0,0,0,0,0,0,0,0,0,0,0,0,0,0,0,0,0,2,2,2,2,2,
2,5,5,5,2,0,1,0,0,0,0,0,0,0,0,0,1,0,2,2,0,2,2,2,0,0,0,2,2,2,0,1,1,1,1,1,1,0,1,1,1,1,1,1,1,0,2,5,5,5,2,
2,2,2,2,2,0,1,0,1,1,1,0,2,2,2,0,1,0,2,2,0,2,0,0,0,0,0,0,0,2,0,1,0,0,0,0,0,0,1,0,0,0,0,0,1,0,2,2,2,2,2,
0,0,0,0,0,0,1,0,1,5,1,0,2,5,2,0,1,0,2,2,0,2,0,0,0,0,0,0,0,2,0,1,0,1,1,1,1,0,1,0,1,1,1,0,1,0,0,0,0,0,0,
2,2,2,2,2,0,1,0,1,5,1,0,2,5,2,0,1,0,2,2,0,2,0,0,0,0,0,0,0,2,0,1,0,1,1,0,1,0,1,0,1,1,1,0,1,0,2,2,2,2,2,
2,5,5,5,2,0,1,0,1,5,1,0,2,5,2,0,1,0,2,2,0,2,2,2,2,2,2,2,2,2,0,1,0,0,0,0,1,0,1,0,1,1,1,0,1,0,2,5,5,5,2,
2,2,2,2,2,0,1,1,1,1,1,0,2,2,2,0,1,0,0,0,0,0,0,0,0,0,0,0,0,0,0,1,1,1,1,1,1,0,1,0,0,0,0,0,1,0,2,2,2,2,2,
2,0,0,0,0,0,0,0,0,0,0,0,0,0,0,0,0,0,2,2,0,2,2,2,2,2,2,2,2,2,0,0,0,0,0,0,0,0,0,0,2,2,2,0,0,0,0,0,0,0,2,
2,0,2,2,2,0,2,2,2,2,2,0,2,2,2,0,2,2,2,2,0,0,0,0,0,0,0,0,0,0,0,2,2,2,2,2,2,0,2,2,2,2,2,2,2,0,2,2,2,0,2,
2,0,2,5,2,0,0,0,0,0,0,0,0,0,0,0,0,0,2,2,0,2,2,2,2,2,2,2,2,2,0,0,0,0,2,0,0,0,0,0,0,0,0,0,0,0,0,0,2,0,2,
2,0,2,5,2,0,2,0,2,2,2,2,2,2,2,0,2,0,2,2,0,2,5,5,5,5,5,5,5,2,0,2,2,0,2,0,2,0,2,2,0,2,0,2,2,0,2,0,2,0,2,
2,0,2,5,2,0,2,0,0,0,0,2,0,0,0,0,2,0,2,2,0,2,2,2,2,2,2,2,2,2,0,2,2,0,2,0,2,0,2,2,0,2,0,2,2,0,2,0,2,0,2,
2,0,2,5,2,0,2,2,2,2,0,2,0,2,2,2,2,0,2,2,0,0,0,0,0,0,0,0,0,0,0,0,0,0,2,0,2,0,2,2,0,2,0,2,2,0,2,0,2,0,2,
2,0,2,5,2,0,2,0,0,0,0,2,0,0,0,0,2,0,2,2,0,2,2,0,2,2,2,0,2,2,2,2,2,0,2,0,2,0,0,0,0,2,0,0,0,0,2,0,2,0,2,
2,0,2,5,2,0,2,0,2,2,0,2,0,2,2,0,2,0,2,2,0,2,2,0,2,5,2,0,2,5,5,5,2,0,0,0,0,0,2,2,2,2,2,2,2,0,0,0,0,0,2,
2,0,2,5,2,0,2,0,2,2,0,0,0,2,2,0,2,0,2,2,0,2,2,0,2,5,2,0,2,5,5,5,2,0,2,2,2,0,0,0,0,0,0,0,0,0,2,2,2,0,2,
2,0,2,2,2,0,2,0,2,2,0,2,0,2,2,0,2,0,2,2,0,2,2,0,2,5,2,0,2,2,2,2,2,0,2,2,2,0,2,2,2,2,2,2,2,0,2,2,2,0,2,
2,0,0,0,0,0,0,0,0,0,0,0,0,0,0,0,0,0,0,0,0,0,0,0,2,5,2,0,0,0,0,0,0,0,0,0,0,0,2,5,5,5,5,5,2,0,0,0,0,0,2,
2,2,2,2,2,2,2,2,2,2,2,2,2,2,2,2,2,2,2,2,2,2,2,2,2,2,2,2,2,2,2,2,2,2,2,2,2,2,2,2,2,2,2,2,2,2,2,2,2,2,2
</data>
 </layer>
 <objectgroup id="4" name="Waypoints">
  <object id="1" name="Home" x="11.3908" y="364.504">
   <point/>
  </object>
  <object id="2" name="Goal" x="1211.22" y="367.035">
   <point/>
  </object>
  <object id="3" x="251.862" y="224.018">
   <point/>
  </object>
  <object id="4" x="35.4379" y="30.3753">
   <point/>
  </object>
  <object id="5" x="611.304" y="174.658">
   <point/>
  </object>
  <object id="6" x="1185.9" y="274.644">
   <point/>
  </object>
  <object id="7" x="850.51" y="392.348">
   <point/>
  </object>
  <object id="8" x="611.304" y="440.443">
   <point/>
  </object>
  <object id="9" x="273.378" y="656.867">
   <point/>
  </object>
  <object id="10" x="992.261" y="511.318">
   <point/>
  </object>
  <object id="11" x="1187.17" y="704.961">
   <point/>
  </object>
  <object id="12" x="178.455" y="416.395">
   <point/>
  </object>
 </objectgroup>
</map>
